src/icons/solid/users/login.svg

<svg width="24" height="24" viewBox="0 0 24 24" fill="none" xmlns="http://www.w3.org/2000/svg">
<g clip-path="url(#clip0_92_752)">
<path d="M15.1826 3C16.3455 3.05805 17.2206 3.99301 17.1709 5.08203V10.8359H14.2275C14.4462 10.489 14.5654 10.1038 14.5654 9.68945C14.5654 9.11116 14.3277 8.5707 13.9102 8.15625C13.4926 7.74181 12.9256 7.52053 12.3291 7.52051C11.7326 7.52051 11.1755 7.75144 10.748 8.15625L7.32812 11.4727C7.11961 11.6749 6.95108 11.9158 6.8418 12.1758C6.73244 12.4457 6.67285 12.7255 6.67285 13.0146C6.67288 13.3037 6.73247 13.5836 6.8418 13.8438C6.95111 14.1133 7.11961 14.3446 7.32812 14.5469L10.7383 17.8525C11.1558 18.267 11.7229 18.4893 12.3193 18.4893C12.9157 18.4892 13.472 18.2573 13.8994 17.8525C14.3268 17.4477 14.5557 16.8986 14.5557 16.3203C14.5556 15.906 14.4364 15.5111 14.2178 15.1738H17.1602V20.957C17.2096 22.0075 16.3351 22.9422 15.2119 23H3.98828C2.82517 22.9422 1.95029 22.0071 2 20.918V5.04297C1.95054 3.99263 2.82517 3.05798 3.94824 3H15.1826ZM11.792 9.17871C12.0803 8.89919 12.5574 8.89919 12.8457 9.17871C13.1338 9.45825 13.1339 9.92076 12.8457 10.2002L10.6982 12.2822H23.2539C23.6615 12.2822 24 12.6097 24 13.0049C24 13.4 23.6615 13.7275 23.2539 13.7275H10.6982L12.8457 15.8096C13.1339 16.089 13.1338 16.5515 12.8457 16.8311C12.6966 16.9756 12.5072 17.043 12.3184 17.043C12.1296 17.0429 11.941 16.9755 11.792 16.8311L8.37207 13.5156C8.30248 13.4482 8.25266 13.3709 8.21289 13.2842C8.17318 13.1975 8.15333 13.1012 8.15332 13.0049C8.15332 12.9086 8.1732 12.8123 8.21289 12.7256C8.24271 12.6389 8.3025 12.5616 8.37207 12.4941L11.792 9.17871Z" fill="#1D1B20"/>
</g>
<defs>
<clipPath id="clip0_92_752">
<rect width="24" height="24" fill="white"/>
</clipPath>
</defs>
</svg>

<svg xmlns="http://www.w3.org/2000/svg" width="24" height="24" fill="none" viewBox="0 0 24 24"><g clip-path="url(#a)"><path fill="currentColor" d="M15.183 3c1.163.058 2.038.993 1.988 2.082v5.754h-2.943a2.13 2.13 0 0 0 .337-1.147 2.15 2.15 0 0 0-.655-1.533 2.23 2.23 0 0 0-1.58-.635 2.3 2.3 0 0 0-1.582.635l-3.42 3.317a2.2 2.2 0 0 0-.486.703 2.14 2.14 0 0 0 0 1.668c.11.27.278.5.486.703l3.41 3.305a2.23 2.23 0 0 0 1.581.637c.597 0 1.153-.232 1.58-.637a2.1 2.1 0 0 0 .657-1.532c0-.414-.12-.809-.338-1.146h2.942v5.783c.05 1.05-.825 1.985-1.948 2.043H3.988C2.825 22.942 1.95 22.007 2 20.918V5.043C1.95 3.993 2.825 3.058 3.948 3zm-3.391 6.179a.767.767 0 0 1 1.054 0 .71.71 0 0 1 0 1.021l-2.148 2.082h12.556c.407 0 .746.328.746.723s-.338.722-.746.722H10.698l2.148 2.083a.71.71 0 0 1 0 1.021.75.75 0 0 1-.528.212.75.75 0 0 1-.526-.212l-3.42-3.315a.8.8 0 0 1-.16-.232.67.67 0 0 1 0-.558.6.6 0 0 1 .16-.232z"/></g><defs><clipPath id="a"><path fill="currentColor" d="M0 0h24v24H0z"/></clipPath></defs></svg>
